X: 1
T: Whiskey In The Jar    [G]
I: 067 2
R: Reel
Z: Carl Allison
B: Joe Buchanan's Scottish Tome - Page 067.2
L: 1/4
M: 4/4
K: G
B |\
"G"d>d de | "G"d B2 d | "Em"e>e ef | "Em"e B2 d | "C"e>e ef | "C"g<g fe |
"G"dd gf |1 e B2 :|2 "G"ed BG |] "D"A>A AB | "D"A4 | z "G"B B3/ A/ |
"G"B<c "G7"d2 | z "C"e e3/ d/ | "C"e<f ge | "G"BB "D7"AA | "G"G3 |] z4 | z4 ||

%%sep 1 1 500
%%sep 1 1 500

